src/js/templates/dw-svg/Climat-Tropical.svg

<?xml version="1.0" encoding="UTF-8" standalone="no"?>
<!-- Generator: Adobe Illustrator 16.0.0, SVG Export Plug-In . SVG Version: 6.00 Build 0)  -->

<svg
   xmlns:dc="http://purl.org/dc/elements/1.1/"
   xmlns:cc="http://creativecommons.org/ns#"
   xmlns:rdf="http://www.w3.org/1999/02/22-rdf-syntax-ns#"
   xmlns:svg="http://www.w3.org/2000/svg"
   xmlns="http://www.w3.org/2000/svg"
   xmlns:sodipodi="http://sodipodi.sourceforge.net/DTD/sodipodi-0.dtd"
   xmlns:inkscape="http://www.inkscape.org/namespaces/inkscape"
   version="1.1"
   id="Layer_1"
   x="0px"
   y="0px"
   width="56.693px"
   height="56.693px"
   viewBox="0 0 56.693 56.693"
   enable-background="new 0 0 56.693 56.693"
   xml:space="preserve"
   sodipodi:docname="Climat-Tropical.svg"
   inkscape:version="0.92.0 r15299"><metadata
   id="metadata19"><rdf:RDF><cc:Work
       rdf:about=""><dc:format>image/svg+xml</dc:format><dc:type
         rdf:resource="http://purl.org/dc/dcmitype/StillImage" /></cc:Work></rdf:RDF></metadata><defs
   id="defs17">
	

	
</defs><sodipodi:namedview
   pagecolor="#ffffff"
   bordercolor="#666666"
   borderopacity="1"
   objecttolerance="10"
   gridtolerance="10"
   guidetolerance="10"
   inkscape:pageopacity="0"
   inkscape:pageshadow="2"
   inkscape:window-width="1280"
   inkscape:window-height="961"
   id="namedview15"
   showgrid="false"
   inkscape:zoom="4.1627714"
   inkscape:cx="-3.8435933"
   inkscape:cy="28.3465"
   inkscape:window-x="-8"
   inkscape:window-y="-8"
   inkscape:window-maximized="1"
   inkscape:current-layer="Layer_1" />

<path
   style="fill:#bd0c27"
   d="M 28.851562 0.28515625 C 27.582563 0.27115625 26.317734 0.30667188 25.052734 0.38867188 C 24.253734 0.44067187 23.487672 0.60875 22.763672 0.96875 C 22.199672 1.24975 21.602234 1.4611875 20.990234 1.6171875 C 20.176234 1.8251875 19.385328 2.0949219 18.611328 2.4199219 C 17.555328 2.8629219 16.521047 3.3422656 15.623047 4.0722656 C 15.288047 4.3452656 14.908172 4.5332187 14.451172 4.5742188 C 13.800172 4.6322187 13.249422 4.9578906 12.732422 5.3378906 C 12.468422 5.5308906 12.256672 5.7781875 12.013672 5.9921875 C 11.810672 6.1711875 11.601031 6.3471094 11.332031 6.4121094 C 11.195031 6.4461094 11.070031 6.4942656 10.957031 6.5722656 C 9.7650312 7.3782656 8.7404062 8.3507812 7.9414062 9.5507812 C 7.3864063 10.382781 6.9386875 11.274812 6.4296875 12.132812 C 6.2606875 12.420813 6.0860937 12.706844 5.8710938 12.964844 C 5.6990938 13.171844 5.4957969 13.314844 5.2167969 13.339844 C 4.9557969 13.363844 4.7639531 13.505609 4.6269531 13.724609 C 4.5129531 13.905609 4.42375 14.098922 4.34375 14.294922 C 4.06075 14.990922 3.7115312 15.642766 3.2695312 16.259766 C 2.5705313 17.238766 2.08775 18.336516 1.71875 19.478516 C 1.48475 20.203516 1.4577656 20.9845 1.1347656 21.6875 C 0.61676562 23.6825 0.43820313 25.701906 0.65820312 27.753906 C 0.81220313 29.186906 1.0855469 30.594234 1.4355469 31.990234 C 1.6425469 32.813234 1.8778594 33.632656 2.0058594 34.472656 C 2.0848594 34.991656 2.1161875 35.50825 2.1171875 36.03125 C 2.1181875 36.32825 2.1625 36.622453 2.4375 36.814453 C 2.5695 36.904453 2.673625 37.019438 2.765625 37.148438 C 2.988625 37.463437 3.1656406 37.805016 3.3066406 38.166016 C 3.7816406 39.382016 4.2723281 40.591766 4.8613281 41.759766 C 5.4853281 43.000766 6.2879375 44.099438 7.3359375 45.023438 C 8.0749375 45.674438 8.8208437 46.317594 9.5898438 46.933594 C 10.152844 47.384594 10.753453 47.788187 11.314453 48.242188 C 12.085453 48.863188 12.742938 49.597719 13.335938 50.386719 C 13.841938 51.059719 14.476047 51.560391 15.248047 51.900391 C 16.911047 52.634391 18.570375 53.379281 20.234375 54.113281 C 21.224375 54.549281 22.238906 54.926734 23.253906 55.302734 C 23.648906 55.448734 24.048609 55.613062 24.349609 55.914062 C 24.563609 56.128062 24.807844 56.242688 25.089844 56.304688 C 25.646844 56.426687 26.211391 56.429906 26.775391 56.378906 C 27.387391 56.327906 27.976719 56.200234 28.511719 55.865234 C 28.823719 55.670234 29.182734 55.566828 29.552734 55.548828 C 29.971734 55.527828 30.383109 55.470234 30.787109 55.365234 C 31.692109 55.131234 32.601297 54.908109 33.529297 54.787109 C 34.412297 54.671109 35.268844 54.460141 36.089844 54.119141 C 38.127844 53.275141 40.114547 52.324109 42.060547 51.287109 C 43.069547 50.747109 44.063563 50.178219 44.851562 49.324219 C 44.940562 49.227219 45.047734 49.138516 45.177734 49.103516 C 45.288734 49.072516 45.381703 49.018219 45.470703 48.949219 C 45.825703 48.676219 46.143937 48.360875 46.460938 48.046875 C 48.001937 46.506875 49.342625 44.798641 50.640625 43.056641 C 51.357625 42.094641 51.985062 41.082078 52.414062 39.955078 C 52.684063 39.250078 53.013609 38.569531 53.349609 37.894531 C 53.582609 37.427531 53.797266 36.950172 53.947266 36.451172 C 54.235266 35.497172 54.517063 34.542984 54.789062 33.583984 C 54.996063 32.853984 55.187563 32.118469 55.226562 31.355469 C 55.249563 30.905469 55.315516 30.464828 55.478516 30.048828 C 55.743516 29.380828 55.833312 28.690547 55.820312 28.060547 C 55.823312 27.187547 55.724844 26.404 55.589844 25.625 C 55.288844 23.906 54.813984 22.233609 54.208984 20.599609 C 52.973984 17.259609 51.309859 14.128453 49.505859 11.064453 C 49.187859 10.522453 48.773344 10.0725 48.277344 9.6875 C 47.750344 9.2745 47.206297 8.883 46.654297 8.5 C 45.965297 8.022 45.294109 7.52375 44.662109 6.96875 C 43.766109 6.18075 42.773641 5.5320625 41.681641 5.0390625 C 40.895641 4.6860625 40.1635 4.24125 39.4375 3.78125 C 38.1705 2.98225 36.860516 2.2813438 35.353516 2.0273438 C 34.783516 1.9313437 34.262187 1.6707344 33.742188 1.4277344 C 32.192188 0.70673438 30.570562 0.30315625 28.851562 0.28515625 z M 27.259766 3.1230469 C 27.585266 3.1194844 27.911781 3.1239687 28.238281 3.1367188 C 29.170281 3.1737187 30.092859 3.2754688 31.005859 3.4804688 C 31.669859 3.6304687 32.289391 3.8905938 32.900391 4.1835938 C 33.994391 4.7075938 35.133937 5.1381719 36.210938 5.7011719 C 36.797938 6.0081719 37.318437 6.4173281 37.898438 6.7363281 C 39.706437 7.7283281 41.337453 8.9689062 42.939453 10.253906 C 43.383453 10.609906 43.803219 10.996234 44.324219 11.240234 C 44.782219 11.453234 45.160094 11.759047 45.496094 12.123047 C 45.774094 12.427047 45.996984 12.773953 46.208984 13.126953 C 47.016984 14.476953 47.725812 15.874469 48.257812 17.355469 C 48.368812 17.662469 48.408281 17.986828 48.488281 18.298828 C 48.579281 18.652828 48.686422 19.000906 48.982422 19.253906 C 49.107422 19.362906 49.141453 19.525594 49.189453 19.683594 C 49.343453 20.197594 49.559766 20.688547 49.759766 21.185547 C 50.120766 22.086547 50.528656 22.969672 50.847656 23.888672 C 51.095656 24.610672 51.151656 25.349516 51.097656 26.103516 C 51.007656 27.371516 50.900484 28.637344 50.771484 29.902344 C 50.635484 31.241344 50.508266 32.581531 50.197266 33.894531 C 50.083266 34.379531 49.910203 34.839391 49.658203 35.275391 C 49.348203 35.817391 49.157219 36.415 48.949219 37 C 48.648219 37.851 48.269734 38.6645 47.802734 39.4375 C 48.005734 39.9705 47.985406 40.584187 47.691406 41.117188 C 47.372406 41.698188 46.797688 42.044141 46.179688 42.119141 C 45.094687 43.455141 43.907219 44.693922 42.574219 45.794922 C 42.349219 45.979922 42.108516 46.136344 41.853516 46.277344 C 41.499516 46.474344 41.178594 46.721969 40.933594 47.042969 C 40.496594 47.616969 39.949328 48.066703 39.361328 48.470703 C 38.171328 49.285703 36.907297 49.958062 35.529297 50.414062 C 34.444297 50.774062 33.328547 50.942219 32.185547 50.949219 C 31.620547 50.951219 31.056234 50.949219 30.490234 50.949219 C 29.522234 50.961219 28.556797 50.953672 27.591797 50.888672 C 27.408797 50.876672 27.227875 50.851125 27.046875 50.828125 C 27.006875 50.823125 26.959688 50.819875 26.929688 50.796875 C 26.579687 50.537875 26.158953 50.502922 25.751953 50.419922 C 24.207953 50.109922 22.677672 49.726531 21.138672 49.394531 C 20.143672 49.178531 19.254969 48.759937 18.417969 48.210938 C 17.399969 47.543937 16.344047 46.951828 15.248047 46.423828 C 14.923047 46.267828 14.608594 46.089625 14.308594 45.890625 C 14.014594 45.696625 13.747453 45.484016 13.564453 45.166016 C 13.390453 44.865016 13.126656 44.630734 12.847656 44.427734 C 12.210656 43.963734 11.702 43.377141 11.25 42.744141 C 10.582 41.807141 9.8437969 40.934641 8.9667969 40.181641 C 8.4417969 39.731641 8.0736719 39.176812 7.8886719 38.507812 C 7.8006719 38.189813 7.6907344 37.879078 7.5527344 37.580078 C 7.4467344 37.350078 7.3345781 37.126266 7.1425781 36.947266 C 7.0185781 36.832266 6.9311562 36.680766 6.9101562 36.509766 C 6.8561562 36.047766 6.7078281 35.612641 6.5488281 35.181641 C 6.0888281 33.933641 5.7877187 32.643656 5.5117188 31.347656 C 5.2717187 30.217656 5.0693594 29.083547 4.9433594 27.935547 C 4.8543594 27.124547 4.8851406 26.317719 4.9941406 25.511719 C 5.2171406 23.868719 5.5687031 22.255641 6.0957031 20.681641 C 6.2737031 20.148641 6.4722344 19.623953 6.7402344 19.126953 C 6.8172344 18.983953 6.9047656 18.844703 7.0097656 18.720703 C 7.3247656 18.345703 7.5704844 17.927422 7.7714844 17.482422 C 7.8844844 17.233422 8.0019219 16.986578 8.1699219 16.767578 C 8.2609219 16.649578 8.3581875 16.545656 8.4921875 16.472656 C 8.6151875 16.405656 8.6933438 16.289641 8.7773438 16.181641 C 8.8803437 16.047641 8.9588281 15.896906 9.0488281 15.753906 C 8.9358281 15.252906 9.0087813 14.712047 9.3007812 14.248047 C 9.5777812 13.809047 10.001703 13.515672 10.470703 13.388672 C 11.034703 12.542672 11.64425 11.726688 12.28125 10.929688 C 13.06825 9.9456875 13.907125 9.0075312 14.828125 8.1445312 C 14.991125 7.9915313 15.161844 7.8469375 15.339844 7.7109375 C 15.633844 7.4869375 15.958078 7.3564063 16.330078 7.3164062 C 16.795078 7.2674062 17.207266 7.0920625 17.572266 6.7890625 C 18.514266 6.0070625 19.56325 5.3849375 20.65625 4.8359375 C 21.83925 4.2429375 23.057516 3.7383594 24.353516 3.4433594 C 25.312016 3.2251094 26.283266 3.1337344 27.259766 3.1230469 z M 33.972656 9.8261719 L 32.101562 14.164062 C 31.345562 15.914062 29.62025 17.136719 27.90625 17.136719 C 27.17425 17.136719 26.119906 16.909172 25.253906 15.826172 L 23.869141 14.095703 L 23.917969 16.310547 C 23.940969 17.350547 23.710375 18.125328 23.234375 18.611328 C 22.181375 19.687328 19.733281 19.43525 16.488281 17.90625 L 10.986328 15.314453 L 15.693359 19.164062 C 17.872359 20.946063 18.997172 22.844281 18.701172 24.238281 C 18.406172 25.627281 16.699719 26.785844 13.761719 27.589844 L 10.357422 28.521484 L 13.845703 29.054688 C 16.149703 29.407688 18.964203 31.073391 19.283203 32.775391 C 19.463203 33.734391 18.775281 34.668734 17.238281 35.552734 L 12.947266 38.021484 L 17.777344 36.933594 C 18.576344 36.754594 19.391766 36.660156 20.134766 36.660156 C 21.216766 36.660156 22.685922 36.857828 23.544922 37.798828 C 24.125922 38.434828 24.364859 39.364547 24.255859 40.560547 L 23.685547 46.792969 L 25.708984 40.869141 C 26.223984 39.364141 27.340312 38.466797 28.695312 38.466797 C 30.083312 38.466797 31.581109 39.385734 32.912109 41.052734 L 34.888672 43.529297 L 34.232422 40.429688 C 33.959422 39.142688 34.088703 38.088891 34.595703 37.462891 C 35.384703 36.487891 37.202516 36.502859 39.603516 37.505859 L 45.935547 40.148438 L 40.324219 36.201172 C 38.646219 35.021172 37.885062 33.297797 38.289062 31.591797 C 38.734063 29.707797 40.437375 28.323469 42.734375 27.980469 L 45.693359 27.539062 L 42.876953 26.533203 C 41.603953 26.079203 39.388281 25.061516 38.863281 23.353516 C 38.537281 22.291516 38.8985 21.031328 39.9375 19.611328 L 42.640625 15.917969 L 38.900391 18.556641 C 37.250391 19.720641 35.690672 19.726266 34.638672 18.572266 C 33.798672 17.651266 33.386156 16.14125 33.535156 14.53125 L 33.972656 9.8261719 z M 32.164062 16.738281 C 32.390062 17.853281 32.85925 18.848938 33.53125 19.585938 C 34.58425 20.740938 36.049266 21.183266 37.572266 20.822266 C 37.192266 21.867266 37.144641 22.862875 37.431641 23.796875 C 37.890641 25.289875 39.121219 26.350844 40.449219 27.089844 C 38.596219 27.904844 37.272031 29.388047 36.832031 31.248047 C 36.496031 32.668047 36.73275 34.083266 37.46875 35.322266 C 37.11475 35.268266 36.776078 35.242188 36.455078 35.242188 C 34.813078 35.242188 33.906594 35.938484 33.433594 36.521484 C 32.980594 37.078484 32.710047 37.779656 32.623047 38.597656 C 31.369047 37.536656 30.017266 36.970703 28.697266 36.970703 C 27.478266 36.970703 26.374156 37.458359 25.535156 38.318359 C 25.348156 37.736359 25.054297 37.223156 24.654297 36.785156 C 23.668297 35.706156 22.071781 35.168203 20.050781 35.158203 C 20.818781 34.169203 20.895766 33.224047 20.759766 32.498047 C 20.409766 30.629047 18.425062 29.115719 16.414062 28.261719 C 18.585063 27.325719 19.846875 26.082781 20.171875 24.550781 C 20.484875 23.074781 19.878812 21.646313 19.007812 20.445312 C 21.393813 21.068313 23.202547 20.793156 24.310547 19.660156 C 24.775547 19.184156 25.096531 18.579563 25.269531 17.851562 C 26.047531 18.364563 26.948203 18.636719 27.908203 18.636719 C 29.488203 18.636719 31.025063 17.921281 32.164062 16.738281 z M 28.730469 19.773438 C 24.251469 19.773438 20.605469 23.418437 20.605469 27.898438 C 20.605469 32.377437 24.251469 36.023438 28.730469 36.023438 C 33.210469 36.023438 36.853516 32.378438 36.853516 27.898438 C 36.853516 23.418437 33.209469 19.773438 28.730469 19.773438 z M 28.730469 21.275391 C 32.383469 21.275391 35.353516 24.247391 35.353516 27.900391 C 35.353516 31.552391 32.382469 34.523438 28.730469 34.523438 C 25.078469 34.523438 22.105469 31.552391 22.105469 27.900391 C 22.105469 24.247391 25.078469 21.275391 28.730469 21.275391 z "
   id="path4" />


</svg>

<?xml version="1.0" encoding="utf-8"?>
<!-- Generator: Adobe Illustrator 16.0.0, SVG Export Plug-In . SVG Version: 6.00 Build 0)  -->
<!DOCTYPE svg PUBLIC "-//W3C//DTD SVG 1.1//EN" "http://www.w3.org/Graphics/SVG/1.1/DTD/svg11.dtd">
<svg version="1.1" id="Layer_1" xmlns="http://www.w3.org/2000/svg" xmlns:xlink="http://www.w3.org/1999/xlink" x="0px" y="0px"
	 width="56.693px" height="56.693px" viewBox="0 0 56.693 56.693" enable-background="new 0 0 56.693 56.693" xml:space="preserve">
<g>
</g>
<g>
	<path fill="#BD0C27" d="M28.73,36.023c-4.479,0-8.124-3.645-8.124-8.124c0-4.48,3.645-8.125,8.124-8.125s8.124,3.645,8.124,8.125
		C36.854,32.379,33.21,36.023,28.73,36.023z M28.73,21.275c-3.652,0-6.624,2.972-6.624,6.625c0,3.652,2.972,6.624,6.624,6.624
		s6.624-2.972,6.624-6.624C35.354,24.247,32.383,21.275,28.73,21.275z"/>
</g>
<g>
	<path fill="#BD0C27" d="M23.686,46.792l0.569-6.231c0.109-1.196-0.129-2.126-0.71-2.762c-0.859-0.941-2.328-1.139-3.41-1.139
		c-0.743,0-1.559,0.095-2.358,0.274l-4.83,1.087l4.291-2.469c1.537-0.884,2.225-1.817,2.045-2.776
		c-0.319-1.702-3.133-3.368-5.437-3.721l-3.488-0.533l3.403-0.932c2.938-0.804,4.646-1.963,4.941-3.352
		c0.296-1.394-0.829-3.291-3.008-5.073l-4.708-3.851l5.502,2.592c3.245,1.529,5.694,1.782,6.747,0.706
		c0.476-0.486,0.706-1.261,0.683-2.301l-0.049-2.216l1.385,1.731c0.866,1.083,1.921,1.31,2.653,1.31h0
		c1.714,0,3.438-1.222,4.194-2.972l1.872-4.338l-0.437,4.705c-0.149,1.61,0.262,3.121,1.102,4.042
		c1.052,1.154,2.612,1.147,4.262-0.017l3.741-2.638l-2.703,3.694c-1.039,1.42-1.4,2.679-1.074,3.741
		c0.525,1.708,2.739,2.726,4.012,3.18l2.817,1.006l-2.958,0.442c-2.297,0.343-4,1.727-4.445,3.611
		c-0.404,1.706,0.357,3.429,2.035,4.609l5.611,3.947l-6.332-2.642c-2.401-1.003-4.22-1.019-5.009-0.044
		c-0.507,0.626-0.636,1.68-0.363,2.967l0.657,3.1l-1.977-2.477c-1.331-1.667-2.829-2.585-4.217-2.585
		c-1.355,0-2.471,0.897-2.986,2.402L23.686,46.792z M28.698,36.97c1.32,0,2.671,0.567,3.925,1.628
		c0.087-0.818,0.357-1.52,0.81-2.077c0.473-0.583,1.381-1.278,3.023-1.278c0.321,0,0.659,0.026,1.013,0.08
		c-0.736-1.239-0.973-2.654-0.637-4.074c0.44-1.86,1.764-3.345,3.617-4.16c-1.328-0.739-2.558-1.8-3.017-3.293
		c-0.287-0.934-0.239-1.929,0.141-2.974c-1.523,0.361-2.988-0.082-4.041-1.237c-0.672-0.737-1.141-1.731-1.367-2.846
		c-1.139,1.183-2.676,1.898-4.256,1.898h0c-0.96,0-1.862-0.272-2.64-0.785c-0.173,0.728-0.494,1.333-0.959,1.809
		c-1.108,1.133-2.917,1.408-5.303,0.785c0.871,1.201,1.477,2.628,1.164,4.104c-0.325,1.532-1.586,2.776-3.757,3.712
		c2.011,0.854,3.995,2.368,4.345,4.237c0.136,0.726,0.059,1.671-0.709,2.66c2.021,0.01,3.618,0.548,4.604,1.627
		c0.4,0.438,0.694,0.95,0.881,1.532C26.374,37.458,27.479,36.97,28.698,36.97z"/>
</g>
<path fill-rule="evenodd" clip-rule="evenodd" fill="#BD0C27" d="M55.59,25.625c-0.301-1.719-0.776-3.392-1.381-5.026
	c-1.235-3.34-2.9-6.471-4.704-9.535c-0.318-0.542-0.732-0.991-1.228-1.376c-0.527-0.413-1.07-0.805-1.622-1.188
	c-0.689-0.478-1.36-0.977-1.992-1.532c-0.896-0.788-1.89-1.436-2.982-1.929c-0.786-0.353-1.517-0.797-2.243-1.257
	c-1.267-0.799-2.578-1.5-4.085-1.754c-0.57-0.096-1.09-0.358-1.61-0.601c-1.55-0.721-3.172-1.123-4.891-1.141
	c-1.269-0.014-2.535,0.021-3.8,0.103c-0.799,0.052-1.565,0.219-2.289,0.579c-0.564,0.281-1.16,0.493-1.772,0.649
	c-0.814,0.208-1.606,0.477-2.38,0.802c-1.056,0.443-2.09,0.923-2.988,1.653c-0.335,0.273-0.714,0.462-1.171,0.503
	c-0.651,0.058-1.202,0.383-1.719,0.763c-0.264,0.193-0.477,0.441-0.72,0.655c-0.203,0.179-0.412,0.355-0.681,0.42
	c-0.137,0.034-0.262,0.082-0.375,0.16C9.765,7.379,8.74,8.35,7.941,9.55c-0.555,0.832-1.002,1.725-1.511,2.583
	c-0.169,0.288-0.344,0.574-0.559,0.832c-0.172,0.207-0.376,0.349-0.655,0.374c-0.261,0.024-0.453,0.166-0.59,0.385
	c-0.114,0.181-0.203,0.375-0.283,0.571c-0.283,0.696-0.631,1.348-1.073,1.965c-0.699,0.979-1.182,2.076-1.551,3.218
	c-0.234,0.725-0.261,1.506-0.584,2.209c-0.518,1.995-0.696,4.014-0.476,6.066c0.154,1.433,0.426,2.841,0.776,4.237
	c0.207,0.823,0.443,1.642,0.571,2.482c0.079,0.519,0.11,1.036,0.111,1.559c0.001,0.297,0.045,0.592,0.32,0.784
	c0.132,0.09,0.237,0.204,0.329,0.333c0.223,0.315,0.399,0.657,0.54,1.018c0.475,1.216,0.967,2.425,1.556,3.593
	C5.486,43,6.288,44.1,7.336,45.024c0.739,0.651,1.485,1.294,2.254,1.91c0.563,0.451,1.164,0.854,1.725,1.308
	c0.771,0.621,1.428,1.355,2.021,2.144c0.506,0.673,1.141,1.174,1.913,1.514c1.663,0.734,3.321,1.48,4.985,2.214
	c0.99,0.436,2.004,0.812,3.019,1.188c0.395,0.146,0.796,0.311,1.097,0.612c0.214,0.214,0.457,0.328,0.739,0.39
	c0.557,0.122,1.122,0.126,1.686,0.075c0.612-0.051,1.202-0.178,1.737-0.513c0.312-0.195,0.67-0.299,1.04-0.317
	c0.419-0.021,0.832-0.078,1.236-0.183c0.905-0.234,1.814-0.458,2.742-0.579c0.883-0.116,1.739-0.326,2.56-0.667
	c2.038-0.844,4.025-1.796,5.971-2.833c1.009-0.54,2.003-1.109,2.791-1.963c0.089-0.097,0.196-0.185,0.326-0.22
	c0.111-0.031,0.204-0.085,0.293-0.154c0.355-0.273,0.673-0.589,0.99-0.903c1.541-1.54,2.882-3.248,4.18-4.99
	c0.717-0.962,1.345-1.975,1.774-3.102c0.27-0.705,0.599-1.385,0.935-2.06c0.233-0.467,0.448-0.944,0.598-1.443
	c0.288-0.954,0.57-1.909,0.842-2.868c0.207-0.73,0.398-1.466,0.437-2.229c0.023-0.45,0.089-0.891,0.252-1.307
	c0.265-0.668,0.354-1.357,0.341-1.987C55.823,27.188,55.725,26.404,55.59,25.625z M51.097,26.104
	c-0.09,1.268-0.196,2.534-0.325,3.799c-0.136,1.339-0.264,2.679-0.575,3.992c-0.114,0.485-0.287,0.945-0.539,1.381
	c-0.31,0.542-0.501,1.139-0.709,1.724c-0.301,0.851-0.679,1.665-1.146,2.438c0.203,0.533,0.182,1.146-0.112,1.679
	c-0.319,0.581-0.894,0.927-1.512,1.002c-1.085,1.336-2.271,2.574-3.604,3.675c-0.225,0.185-0.466,0.342-0.721,0.483
	c-0.354,0.197-0.676,0.444-0.921,0.765c-0.437,0.574-0.983,1.024-1.571,1.428c-1.19,0.815-2.454,1.489-3.832,1.945
	c-1.085,0.36-2.202,0.528-3.345,0.535c-0.565,0.002-1.129,0-1.695,0c-0.968,0.012-1.934,0.003-2.899-0.062
	c-0.183-0.012-0.364-0.036-0.545-0.059c-0.04-0.005-0.087-0.009-0.117-0.032c-0.35-0.259-0.771-0.294-1.178-0.377
	c-1.544-0.31-3.073-0.693-4.612-1.025c-0.995-0.216-1.884-0.635-2.721-1.184c-1.018-0.667-2.074-1.259-3.17-1.787
	c-0.325-0.156-0.64-0.334-0.94-0.533c-0.294-0.194-0.56-0.407-0.743-0.725c-0.174-0.301-0.438-0.536-0.717-0.739
	c-0.637-0.464-1.146-1.05-1.598-1.683c-0.668-0.937-1.407-1.809-2.284-2.562c-0.525-0.45-0.892-1.005-1.077-1.674
	c-0.088-0.318-0.198-0.628-0.336-0.927c-0.106-0.23-0.219-0.455-0.411-0.634c-0.124-0.115-0.21-0.266-0.231-0.437
	c-0.054-0.462-0.204-0.897-0.363-1.328c-0.46-1.248-0.761-2.538-1.037-3.834c-0.24-1.13-0.441-2.265-0.567-3.413
	c-0.089-0.811-0.059-1.617,0.05-2.423c0.223-1.643,0.574-3.257,1.101-4.831c0.178-0.533,0.378-1.058,0.646-1.555
	c0.077-0.143,0.163-0.281,0.268-0.405c0.315-0.375,0.562-0.793,0.763-1.238c0.113-0.249,0.229-0.496,0.397-0.715
	c0.091-0.118,0.189-0.222,0.323-0.295c0.123-0.067,0.201-0.184,0.285-0.292c0.103-0.134,0.181-0.284,0.271-0.427
	c-0.113-0.501-0.04-1.042,0.252-1.506c0.277-0.439,0.701-0.733,1.17-0.86c0.564-0.846,1.175-1.661,1.812-2.458
	c0.787-0.984,1.625-1.922,2.546-2.785c0.163-0.153,0.333-0.298,0.511-0.434c0.294-0.224,0.62-0.355,0.992-0.395
	c0.465-0.049,0.877-0.224,1.242-0.527c0.942-0.782,1.99-1.404,3.083-1.953c1.183-0.593,2.402-1.098,3.698-1.393
	c1.278-0.291,2.578-0.357,3.884-0.306c0.932,0.037,1.855,0.139,2.768,0.344c0.664,0.15,1.284,0.409,1.895,0.702
	c1.094,0.524,2.233,0.956,3.31,1.519c0.587,0.307,1.108,0.715,1.688,1.034c1.808,0.992,3.439,2.233,5.041,3.518
	c0.444,0.356,0.864,0.742,1.385,0.986c0.458,0.213,0.836,0.52,1.172,0.884c0.278,0.304,0.5,0.65,0.712,1.003
	c0.808,1.35,1.516,2.748,2.048,4.229c0.111,0.307,0.151,0.63,0.231,0.942c0.091,0.354,0.198,0.702,0.494,0.955
	c0.125,0.109,0.159,0.272,0.207,0.43c0.154,0.514,0.371,1.005,0.571,1.502c0.361,0.901,0.768,1.785,1.087,2.704
	C51.095,24.611,51.151,25.35,51.097,26.104z"/>
</svg>
